packages/icon/src/svg/notifications-new.icon.svg

<svg width="24" height="24" viewBox="0 0 24 24" fill="none" xmlns="http://www.w3.org/2000/svg">
<path fill-rule="evenodd" clip-rule="evenodd" d="M8.19995 2.19999C7.23959 2.58413 6.64815 3.61388 6.95706 4.66922C4.84582 6.33191 3.9345 9.2454 4.89983 11.9L5.59983 13.9C5.89983 14.9 6.39983 16.9 5.79983 18.1C5.59983 18.4 5.59983 18.7 5.69983 19C5.89983 19.4 6.29983 19.7 6.69983 19.7C6.79983 19.7 6.89983 19.7 7.09983 19.6L20.0998 14.9C20.6998 14.7 20.8998 14.1 20.6998 13.5C20.5998 13.2 20.2998 13 20.0998 12.9C18.7998 12.3 17.9998 10.5 17.5998 9.50005L16.8998 7.50005C15.9998 4.90005 13.4998 3.30005 10.8998 3.30005C10.8527 3.30005 10.8052 3.3005 10.7572 3.30144C10.32 2.36747 9.16654 1.91001 8.19995 2.19999ZM14.9998 8.20005C14.3998 6.50005 12.6998 5.30005 10.8998 5.30005C10.3998 5.30005 9.89983 5.30005 9.39983 5.50005C8.29983 5.90005 7.39983 6.70005 6.89983 7.80005C6.39983 8.90005 6.39983 10.1 6.79983 11.2L7.49983 13.2C7.89983 14.3 8.19983 15.7 8.09983 17.1L17.7998 13.6C16.7998 12.6 16.0998 11.3 15.6998 10.2L14.9998 8.20005ZM13.2 21.7C14.8 21.2 15.6 19.5 15 17.9L9.39995 19.9C9.89995 21.5 11.6 22.3 13.2 21.7Z" fill="white"/>
</svg>

<svg aria-label="notifications new icon" viewBox="0 0 24 24"><path fill-rule="evenodd" clip-rule="evenodd" d="M8.2 2.2c-.96.384-1.552 1.414-1.243 2.47A6.435 6.435 0 004.9 11.9l.7 2c.3 1 .8 3 .2 4.2-.2.3-.2.6-.1.9.2.4.6.7 1 .7.1 0 .2 0 .4-.1l13-4.7c.6-.2.8-.8.6-1.4-.1-.3-.4-.5-.6-.6-1.3-.6-2.1-2.4-2.5-3.4l-.7-2c-.9-2.6-3.4-4.2-6-4.2l-.143.001C10.32 2.367 9.167 1.91 8.2 2.2zm6.8 6c-.6-1.7-2.3-2.9-4.1-2.9-.5 0-1 0-1.5.2-1.1.4-2 1.2-2.5 2.3-.5 1.1-.5 2.3-.1 3.4l.7 2c.4 1.1.7 2.5.6 3.9l9.7-3.5c-1-1-1.7-2.3-2.1-3.4l-.7-2zm-1.8 13.5c1.6-.5 2.4-2.2 1.8-3.8l-5.6 2c.5 1.6 2.2 2.4 3.8 1.8z"/></svg>
